X: 25898
T: Mattabasset
R: jig
M: 6/8
K: Aminor
|:~A2E ABc|~B2G Bcd|cBA Bcd|efe dcB|
~A2E ABc|~B2G Bcd|cBA EBA|1 EAB A2E:|2 EAB A3||
|:cde cde|efe ~d3|d2d dcd|e2c ~B2A|
cBA dcB|edc ^f2g|a2e edc|1 BcB ~A3:|2 BcB A2E||

